icon/hi/scale-outline.svg

<svg viewBox="0 0 24 24" fill="none" xmlns="http://www.w3.org/2000/svg" height="1em" width="1em">
  <path d="M3 6L6 7M6 7L3 16C4.77253 17.3334 7.22866 17.3334 9.00119 16M6 7L9.00006 16M6 7L12 5M18 7L21 6M18 7L15 16C16.7725 17.3334 19.2287 17.3334 21.0012 16M18 7L21.0001 16M18 7L12 5M12 3V5M12 21V5M12 21H9M12 21H15" stroke="#4A5568" stroke-width="2" stroke-linecap="round" stroke-linejoin="round"/>
</svg>

<svg width="24" height="24" fill="none" xmlns="http://www.w3.org/2000/svg"><path d="m3 6 3 1m0 0-3 9a5.002 5.002 0 0 0 6.001 0M6 7l3 9M6 7l6-2m6 2 3-1m-3 1-3 9a5.002 5.002 0 0 0 6.001 0M18 7l3 9m-3-9-6-2m0-2v2m0 16V5m0 16H9m3 0h3" stroke="#4A5568" stroke-width="2" stroke-linecap="round" stroke-linejoin="round"/></svg>
